X:169
T:Maid on the Green, The
R:jig
D:Mary Bergin: Feadoga Stain 2
D:Paul McGrattan: The Frost Is All Over
Z:id:hn-jig-169
M:6/8
K:G
~g3 e2d|Bee dBA|BGG dGG|BAG ABd|~g3 e2d|Bee dBA|BGG dBA|AGF GBd:|
~g3 afd|~g3 a2f|~g3 eag|fdd dga|bag agf|~g3 e2d|Bee dBA|BGF GBd:|

